X: 32
M:2/4
L:1/16
K:A
"_mf"vcd|\
.e.A.f.A .e.A."1"a.A | "3".c'.A."1"a.A "0".e.A.f.A | \
eagf edcd | edcd Bcd^d |
.e.A.f.A .e.A."1"a.A | "3".c'.A."1"a.A "0".e.A.f.A |\
eagf edcB | Aaec A2 :|
|:"_f"vED|\
 caec A"4"ecA | dcBA GFED |
 caec Bdgf | (3efe (3dcB A2:|


